img/svg/net/myie2.svg

<?xml version="1.0" encoding="iso-8859-1"?>
<!-- Generator: Adobe Illustrator 21.0.2, SVG Export Plug-In . SVG Version: 6.00 Build 0)  -->
<svg version="1.1" id="&#x56FE;&#x5C42;_1" xmlns="http://www.w3.org/2000/svg" xmlns:xlink="http://www.w3.org/1999/xlink" x="0px"
	 y="0px" viewBox="0 0 16 16" style="enable-background:new 0 0 16 16;" xml:space="preserve">
<path style="fill-rule:evenodd;clip-rule:evenodd;" d="M1,8L1,8c0,3.866,3.134,7,7,7h0c3.866,0,7-3.134,7-7v0c0-3.866-3.134-7-7-7h0
	C4.134,1,1,4.134,1,8z M9.094,10.992H6.961V8.363h2.133V10.992z M12.32,10.989c0,0-1.756,0.002-2.133,0.002V7.272l-4.32,0.001v3.711
	c-0.003,0.003-0.005,0.005-0.008,0.008H3.734V5.082l8.586,0.01V10.989z"/>
</svg>

<svg xmlns="http://www.w3.org/2000/svg" viewBox="0 0 16 16"><title>myie2</title><path d="M1,8H1a7,7,0,0,0,7,7H8a7,7,0,0,0,7-7h0A7,7,0,0,0,8,1H8A7,7,0,0,0,1,8Zm8.09,3H7V8.36H9.09Zm3.23,0H10.19V7.27H5.87V11H3.73V5.08h8.59Z" style="fill-rule:evenodd"/></svg>
